assets/images/transactions-banner.svg

<svg width="269" height="173" viewBox="0 0 269 173" fill="none" xmlns="http://www.w3.org/2000/svg">
<path opacity="0.1" d="M264.448 134.679C257.783 148.07 244.249 157.025 230.224 162.93C211.343 170.883 190.55 174.038 170.043 172.704C166.449 172.471 162.866 172.099 159.294 171.587C146.888 169.824 134.793 166.394 123.355 161.394C120.054 159.946 116.82 158.365 113.652 156.651C108.362 153.795 103.293 150.566 98.4859 146.99C97.2768 146.091 96.0845 145.169 94.9088 144.225C94.0936 143.57 93.2858 142.9 92.4655 142.25C90.7347 140.88 88.9537 139.577 86.9669 138.603C86.3675 138.308 85.7529 138.044 85.1257 137.811C78.8344 135.48 71.5798 136.36 65.0302 138.177C60.0483 139.56 55.1918 141.454 50.215 142.805C48.0013 143.424 45.7456 143.891 43.4646 144.203C38.3721 144.83 33.2005 144.388 28.2983 142.905L27.8794 142.778C27.177 142.563 26.4805 142.328 25.7898 142.072L25.3709 141.916C24.702 141.665 24.0472 141.395 23.4067 141.107L22.9878 140.921C22.3189 140.618 21.6642 140.298 21.0237 139.961C20.7929 139.844 20.5646 139.717 20.3389 139.597C16.6947 137.615 13.3822 135.103 10.5156 132.147C10.4328 132.067 10.3551 131.984 10.2648 131.903C9.8659 131.483 9.47457 131.055 9.09579 130.618C8.95532 130.457 8.81484 130.295 8.67687 130.129C8.22702 129.595 7.79305 129.048 7.37497 128.49C7.31225 128.409 7.25205 128.326 7.19185 128.245C5.47894 125.937 4.05886 123.436 2.96253 120.796C2.92741 120.715 2.8948 120.632 2.8647 120.551C2.53023 119.713 2.22503 118.86 1.9491 117.993C1.83622 117.632 1.72835 117.26 1.63303 116.899C1.60042 116.791 1.57031 116.681 1.54272 116.574C0.158033 111.265 0 105.745 0 100.257C0 99.6173 0 98.978 0 98.3395C0.0401359 89.463 0.18061 80.435 1.52516 71.6807C1.52516 71.6196 1.54272 71.5585 1.55276 71.4999C2.00277 68.5527 2.61489 65.6312 3.38646 62.748C4.194 59.7227 5.22603 56.7585 6.47442 53.8788C9.56739 46.7933 14.0651 40.3454 19.0595 34.3691C31.6396 19.3306 48.138 6.7061 67.4483 1.98077C88.2563 -3.10862 111.382 1.7682 128.166 14.7836C133.284 18.7516 137.882 23.45 143.629 26.4919C148.646 29.1404 154.518 30.2375 159.891 28.1534C164.331 26.4308 167.221 25.5757 172.208 25.8371C182.532 26.406 192.71 28.4823 202.4 31.9967C202.792 32.1359 203.183 32.2801 203.572 32.4242C228.835 41.8383 250.551 60.5417 261.839 84.5764C262.138 85.2117 262.428 85.8518 262.709 86.4968C269.44 101.809 271.873 119.755 264.448 134.679Z" fill="#007CBA" fill-opacity="0.5"/>
<path d="M100.228 97.5002H76.7766C75.3772 97.5002 74.035 98.0797 73.0455 99.1111C72.0559 100.143 71.5 101.542 71.5 103C71.5 104.459 72.0559 105.858 73.0455 106.889C74.035 107.921 75.3772 108.5 76.7766 108.5H100.228C101.627 108.499 102.968 107.919 103.956 106.888C104.945 105.856 105.5 104.458 105.5 103C105.5 101.542 104.945 100.144 103.956 99.113C102.968 98.0817 101.627 97.5016 100.228 97.5002Z" fill="#E6F2F8"/>
<g filter="url(#filter0_d)">
<path d="M204.987 41.5002H75.0133C73.5014 41.5002 72.0042 41.8037 70.6074 42.3934C69.2105 42.983 67.9413 43.8472 66.8722 44.9368C65.803 46.0263 64.955 47.3197 64.3764 48.7432C63.7978 50.1667 63.5 51.6925 63.5 53.2333V117.767C63.5 120.879 64.713 123.863 66.8722 126.064C69.0313 128.264 71.9598 129.5 75.0133 129.5H204.987C206.499 129.5 207.996 129.197 209.393 128.607C210.789 128.017 212.059 127.153 213.128 126.064C214.197 124.974 215.045 123.681 215.624 122.257C216.202 120.834 216.5 119.308 216.5 117.767V53.2333C216.5 51.6925 216.202 50.1667 215.624 48.7432C215.045 47.3197 214.197 46.0263 213.128 44.9368C212.059 43.8473 210.789 42.983 209.393 42.3934C207.996 41.8037 206.499 41.5002 204.987 41.5002ZM71.7976 49.504C72.0543 49.4567 78.1403 48.4012 83.1799 51.4915C88.2192 54.5812 90.1554 60.5559 90.2352 60.8085L90.4389 61.4528L89.785 61.571C88.852 61.7194 87.9087 61.79 86.9645 61.7821C84.6757 61.7821 81.3592 61.3962 78.4023 59.5829C73.363 56.4937 71.4271 50.5191 71.3473 50.2665L71.1436 49.6222L71.7976 49.504ZM100.011 109.42H76.8296C75.1388 109.42 73.5173 108.735 72.3218 107.517C71.1262 106.299 70.4546 104.646 70.4546 102.923C70.4546 101.2 71.1262 99.5476 72.3218 98.3292C73.5173 97.1109 75.1388 96.4264 76.8296 96.4264H100.011C101.702 96.4264 103.324 97.1109 104.519 98.3292C105.715 99.5476 106.386 101.2 106.386 102.923C106.386 104.646 105.715 106.299 104.519 107.517C103.324 108.735 101.702 109.42 100.011 109.42V109.42ZM205.489 108.238C205.483 110.116 204.749 111.916 203.446 113.244C202.143 114.572 200.377 115.32 198.534 115.326H181.148C179.305 115.32 177.539 114.572 176.236 113.244C174.933 111.916 174.199 110.116 174.193 108.238V97.6076C174.199 95.7297 174.933 93.9302 176.236 92.6023C177.539 91.2743 179.305 90.5259 181.148 90.5204H198.534C200.377 90.5259 202.143 91.2743 203.446 92.6023C204.749 93.9302 205.483 95.7297 205.489 97.6076L205.489 108.238Z" fill="white"/>
</g>
<path d="M186.575 106.5H179.425C178.914 106.5 178.425 106.711 178.064 107.086C177.703 107.461 177.5 107.97 177.5 108.5C177.5 109.031 177.703 109.539 178.064 109.914C178.425 110.29 178.914 110.5 179.425 110.5H186.575C187.086 110.5 187.575 110.29 187.936 109.914C188.297 109.539 188.5 109.031 188.5 108.5C188.5 107.97 188.297 107.461 187.936 107.086C187.575 106.711 187.086 106.5 186.575 106.5V106.5ZM186.575 109.357H179.425C179.316 109.358 179.209 109.336 179.109 109.293C179.008 109.25 178.917 109.187 178.84 109.107C178.764 109.027 178.703 108.933 178.661 108.829C178.619 108.725 178.598 108.613 178.598 108.5C178.598 108.388 178.619 108.276 178.661 108.172C178.703 108.068 178.764 107.973 178.84 107.893C178.917 107.814 179.008 107.751 179.109 107.708C179.209 107.665 179.316 107.643 179.425 107.643H186.575C186.684 107.643 186.791 107.665 186.891 107.708C186.992 107.751 187.083 107.814 187.16 107.893C187.236 107.973 187.297 108.068 187.339 108.172C187.38 108.276 187.402 108.388 187.402 108.5C187.402 108.613 187.38 108.725 187.339 108.829C187.297 108.933 187.236 109.027 187.16 109.107C187.083 109.187 186.992 109.25 186.891 109.293C186.791 109.336 186.684 109.358 186.575 109.357V109.357Z" fill="#FEFEFE"/>
<path d="M200.401 106.5H192.603C192.327 106.5 192.053 106.551 191.798 106.652C191.543 106.752 191.311 106.899 191.116 107.085C190.921 107.271 190.766 107.491 190.66 107.734C190.554 107.977 190.5 108.237 190.5 108.5C190.5 108.763 190.554 109.023 190.66 109.266C190.766 109.509 190.921 109.73 191.116 109.916C191.311 110.101 191.543 110.249 191.798 110.349C192.053 110.449 192.327 110.501 192.603 110.5H200.401C200.957 110.5 201.491 110.29 201.885 109.914C202.279 109.539 202.5 109.031 202.5 108.5C202.5 107.97 202.279 107.461 201.885 107.086C201.491 106.711 200.957 106.5 200.401 106.5ZM200.401 109.357H192.603C192.484 109.358 192.367 109.336 192.258 109.293C192.148 109.25 192.049 109.187 191.965 109.107C191.881 109.027 191.815 108.933 191.769 108.829C191.724 108.725 191.701 108.613 191.701 108.5C191.701 108.388 191.724 108.276 191.769 108.172C191.815 108.068 191.881 107.973 191.965 107.893C192.049 107.814 192.148 107.751 192.258 107.708C192.367 107.665 192.484 107.643 192.603 107.643H200.401C200.639 107.644 200.867 107.734 201.035 107.895C201.204 108.056 201.298 108.273 201.298 108.5C201.298 108.727 201.204 108.945 201.035 109.106C200.867 109.266 200.639 109.357 200.401 109.357V109.357Z" fill="#FEFEFE"/>
<path d="M186.573 101.5H179.424C178.914 101.5 178.425 101.658 178.064 101.94C177.703 102.221 177.5 102.602 177.5 103C177.5 103.398 177.703 103.78 178.064 104.061C178.425 104.342 178.914 104.5 179.424 104.5H186.573C186.826 104.501 187.076 104.462 187.31 104.387C187.544 104.311 187.756 104.201 187.935 104.062C188.114 103.922 188.256 103.757 188.353 103.575C188.45 103.393 188.5 103.197 188.5 103C188.5 102.803 188.45 102.608 188.353 102.426C188.256 102.244 188.114 102.078 187.935 101.939C187.756 101.799 187.544 101.689 187.31 101.614C187.076 101.539 186.826 101.5 186.573 101.5V101.5ZM186.573 103.643H179.424C179.206 103.643 178.996 103.575 178.841 103.455C178.687 103.334 178.6 103.171 178.6 103C178.6 102.83 178.687 102.666 178.841 102.546C178.996 102.425 179.206 102.357 179.424 102.357H186.573C186.791 102.357 187.001 102.425 187.156 102.546C187.31 102.666 187.397 102.83 187.397 103C187.397 103.171 187.31 103.334 187.156 103.455C187.001 103.575 186.791 103.643 186.573 103.643V103.643Z" fill="#FEFEFE"/>
<path d="M200.401 101.5H192.603C192.327 101.5 192.053 101.539 191.798 101.614C191.543 101.689 191.311 101.799 191.116 101.939C190.921 102.078 190.766 102.244 190.66 102.426C190.554 102.608 190.5 102.803 190.5 103C190.5 103.197 190.554 103.393 190.66 103.575C190.766 103.757 190.921 103.922 191.116 104.062C191.311 104.201 191.543 104.311 191.798 104.387C192.053 104.462 192.327 104.501 192.603 104.5H200.401C200.957 104.5 201.491 104.342 201.885 104.061C202.279 103.78 202.5 103.398 202.5 103C202.5 102.602 202.279 102.221 201.885 101.94C201.491 101.658 200.957 101.5 200.401 101.5ZM200.401 103.643H192.603C192.364 103.643 192.135 103.575 191.966 103.455C191.798 103.334 191.703 103.171 191.703 103C191.703 102.83 191.798 102.666 191.966 102.546C192.135 102.425 192.364 102.357 192.603 102.357H200.401C200.639 102.357 200.868 102.425 201.037 102.546C201.206 102.666 201.3 102.83 201.3 103C201.3 103.171 201.206 103.334 201.037 103.455C200.868 103.575 200.639 103.643 200.401 103.643Z" fill="#FEFEFE"/>
<path d="M186.575 95.5002H179.425C178.914 95.5002 178.425 95.711 178.064 96.086C177.703 96.4611 177.5 96.9698 177.5 97.5002C177.5 98.0307 177.703 98.5394 178.064 98.9145C178.425 99.2895 178.914 99.5002 179.425 99.5002H186.575C187.086 99.5002 187.575 99.2895 187.936 98.9145C188.297 98.5394 188.5 98.0307 188.5 97.5002C188.5 96.9698 188.297 96.4611 187.936 96.086C187.575 95.711 187.086 95.5002 186.575 95.5002V95.5002ZM186.575 98.3574H179.425C179.206 98.3574 178.996 98.2671 178.842 98.1063C178.687 97.9456 178.6 97.7276 178.6 97.5002C178.6 97.2729 178.687 97.0549 178.842 96.8942C178.996 96.7334 179.206 96.6431 179.425 96.6431H186.575C186.794 96.6431 187.004 96.7334 187.158 96.8942C187.313 97.0549 187.4 97.2729 187.4 97.5002C187.4 97.7276 187.313 97.9456 187.158 98.1063C187.004 98.2671 186.794 98.3574 186.575 98.3574V98.3574Z" fill="#FEFEFE"/>
<path d="M200.403 95.5002H192.603C192.327 95.4998 192.054 95.5513 191.799 95.6516C191.543 95.7519 191.312 95.8992 191.116 96.085C190.921 96.2707 190.766 96.4913 190.66 96.7342C190.554 96.977 190.5 97.2373 190.5 97.5002C190.5 97.7631 190.554 98.0235 190.66 98.2663C190.766 98.5092 190.921 98.7298 191.116 98.9155C191.312 99.1013 191.543 99.2485 191.799 99.3489C192.054 99.4492 192.327 99.5006 192.603 99.5002H200.403C200.96 99.4994 201.493 99.2884 201.886 98.9134C202.279 98.5384 202.5 98.0302 202.5 97.5002C202.5 96.9703 202.279 96.4621 201.886 96.0871C201.493 95.7121 200.96 95.5011 200.403 95.5002V95.5002ZM200.403 98.3574H192.603C192.364 98.3574 192.136 98.2671 191.967 98.1063C191.798 97.9456 191.703 97.7276 191.703 97.5002C191.703 97.2729 191.798 97.0549 191.967 96.8942C192.136 96.7334 192.364 96.6431 192.603 96.6431H200.403C200.642 96.6431 200.871 96.7334 201.04 96.8942C201.208 97.0549 201.303 97.2729 201.303 97.5002C201.303 97.7276 201.208 97.9456 201.04 98.1063C200.871 98.2671 200.642 98.3574 200.403 98.3574Z" fill="#FEFEFE"/>
<g filter="url(#filter1_d)">
<path d="M135.5 129.5C147.65 129.5 157.5 119.874 157.5 108C157.5 96.1259 147.65 86.5 135.5 86.5C123.35 86.5 113.5 96.1259 113.5 108C113.5 119.874 123.35 129.5 135.5 129.5Z" fill="#007CBA"/>
<path opacity="0.1" d="M136 126.5C146.217 126.5 154.5 118.217 154.5 108C154.5 97.7827 146.217 89.5 136 89.5C125.783 89.5 117.5 97.7827 117.5 108C117.5 118.217 125.783 126.5 136 126.5Z" fill="black"/>
<path d="M135.182 118.5V115.794C133.786 115.767 132.342 115.284 131.5 114.614L132.077 112.819C133.078 113.554 134.292 113.958 135.543 113.971C137.251 113.971 138.406 112.873 138.406 111.345C138.406 109.871 137.468 108.96 135.687 108.156C133.233 107.085 131.717 105.852 131.717 103.521C131.717 101.297 133.136 99.6084 135.35 99.2064V96.5H136.842V99.0993C137.955 99.1142 139.04 99.4395 139.971 100.037L139.369 101.806C138.476 101.207 137.419 100.889 136.337 100.895C134.484 100.895 133.786 102.127 133.786 103.199C133.786 104.593 134.676 105.289 136.77 106.254C139.249 107.379 140.5 108.773 140.5 111.158C140.5 113.275 139.176 115.258 136.698 115.713V118.5H135.182Z" fill="white"/>
<path d="M158.5 150.767C143.251 153.078 127.749 153.078 112.5 150.767V145.5C127.765 147.577 143.235 147.577 158.5 145.5V150.767Z" fill="#007CBA"/>
<path d="M158.5 143.014C143.251 144.995 127.749 144.995 112.5 143.014V138.5C127.765 140.281 143.235 140.281 158.5 138.5V143.014Z" fill="#007CBA"/>
<path d="M158.5 135.519C143.251 138.16 127.749 138.16 112.5 135.519V129.5C127.765 131.874 143.235 131.874 158.5 129.5V135.519Z" fill="#007CBA"/>
</g>
<defs>
<filter id="filter0_d" x="57.5" y="37.5002" width="165" height="100" filterUnits="userSpaceOnUse" color-interpolation-filters="sRGB">
<feFlood flood-opacity="0" result="BackgroundImageFix"/>
<feColorMatrix in="SourceAlpha" type="matrix" values="0 0 0 0 0 0 0 0 0 0 0 0 0 0 0 0 0 0 127 0"/>
<feOffset dy="2"/>
<feGaussianBlur stdDeviation="3"/>
<feColorMatrix type="matrix" values="0 0 0 0 0 0 0 0 0 0 0 0 0 0 0 0 0 0 0.05 0"/>
<feBlend mode="normal" in2="BackgroundImageFix" result="effect1_dropShadow"/>
<feBlend mode="normal" in="SourceGraphic" in2="effect1_dropShadow" result="shape"/>
</filter>
<filter id="filter1_d" x="106.5" y="82.5" width="58" height="78" filterUnits="userSpaceOnUse" color-interpolation-filters="sRGB">
<feFlood flood-opacity="0" result="BackgroundImageFix"/>
<feColorMatrix in="SourceAlpha" type="matrix" values="0 0 0 0 0 0 0 0 0 0 0 0 0 0 0 0 0 0 127 0"/>
<feOffset dy="2"/>
<feGaussianBlur stdDeviation="3"/>
<feColorMatrix type="matrix" values="0 0 0 0 0 0 0 0 0 0 0 0 0 0 0 0 0 0 0.05 0"/>
<feBlend mode="normal" in2="BackgroundImageFix" result="effect1_dropShadow"/>
<feBlend mode="normal" in="SourceGraphic" in2="effect1_dropShadow" result="shape"/>
</filter>
</defs>
</svg>

<svg xmlns="http://www.w3.org/2000/svg" width="269" height="173" fill="none"><path fill="#007CBA" fill-opacity=".5" d="M264.45 134.68c-6.67 13.39-20.2 22.34-34.23 28.25-18.88 7.95-39.67 11.1-60.18 9.77a139.2 139.2 0 0 1-56.39-16.05 124.52 124.52 0 0 1-18.74-12.43l-2.44-1.97a30.87 30.87 0 0 0-5.5-3.65c-.6-.3-1.22-.56-1.84-.79-6.3-2.33-13.55-1.45-20.1.37-4.98 1.38-9.84 3.27-14.81 4.63a50.46 50.46 0 0 1-6.76 1.4c-5.09.62-10.26.18-15.16-1.3l-.42-.13c-.7-.22-1.4-.45-2.09-.7l-.42-.16c-.67-.25-1.32-.52-1.96-.81l-.42-.19c-.67-.3-1.33-.62-1.97-.96l-.68-.36a40.9 40.9 0 0 1-9.82-7.45c-.09-.08-.16-.17-.26-.25a38.22 38.22 0 0 1-2.89-3.41l-.18-.25A35.07 35.07 0 0 1 1.95 118a25.62 25.62 0 0 1-.4-1.42C.14 111.27 0 105.75 0 100.26v-1.92c.04-8.88.18-17.9 1.53-26.66l.02-.18a81.36 81.36 0 0 1 1.84-8.75c.8-3.03 1.84-6 3.08-8.87 3.1-7.09 7.6-13.53 12.59-19.51C31.64 19.33 48.14 6.7 67.45 1.98c20.8-5.09 43.93-.21 60.72 12.8 5.11 3.97 9.71 8.67 15.46 11.71 5.02 2.65 10.89 3.75 16.26 1.66 4.44-1.72 7.33-2.57 12.32-2.31a105.62 105.62 0 0 1 31.36 6.58c25.27 9.42 46.98 28.12 58.27 52.16.3.63.59 1.27.87 1.92 6.73 15.3 9.16 33.25 1.74 48.18Z" opacity=".1"/><path fill="#E6F2F8" d="M100.23 97.5H76.78c-1.4 0-2.75.58-3.73 1.61a5.62 5.62 0 0 0 0 7.78 5.17 5.17 0 0 0 3.73 1.61h23.45c1.4 0 2.74-.58 3.73-1.61a5.62 5.62 0 0 0 0-7.78 5.17 5.17 0 0 0-3.73-1.61Z"/><g filter="url(#a)"><path fill="#fff" d="M204.99 41.5H75a11.33 11.33 0 0 0-8.14 3.44 11.75 11.75 0 0 0-3.37 8.3v64.53c0 3.1 1.21 6.1 3.37 8.3a11.4 11.4 0 0 0 8.14 3.43H205a11.32 11.32 0 0 0 8.14-3.44 11.76 11.76 0 0 0 3.37-8.3V53.24a11.94 11.94 0 0 0-3.37-8.3 11.5 11.5 0 0 0-8.14-3.43Zm-133.2 8c.26-.04 6.35-1.1 11.39 2 5.04 3.08 6.98 9.06 7.06 9.3l.2.65-.66.12c-.93.15-1.87.22-2.82.21-2.28 0-5.6-.38-8.56-2.2-5.04-3.09-6.97-9.06-7.05-9.31l-.2-.65.65-.12Zm28.22 59.92H76.83c-1.7 0-3.31-.69-4.5-1.9a6.56 6.56 0 0 1 0-9.2 6.32 6.32 0 0 1 4.5-1.9h23.18c1.7 0 3.31.7 4.5 1.9a6.56 6.56 0 0 1 0 9.2 6.32 6.32 0 0 1-4.5 1.9Zm105.48-1.18c0 1.88-.74 3.68-2.04 5a6.91 6.91 0 0 1-4.92 2.09h-17.38c-1.84-.01-3.61-.76-4.91-2.09a7.18 7.18 0 0 1-2.05-5V97.6c0-1.88.74-3.68 2.05-5a6.91 6.91 0 0 1 4.9-2.09h17.4c1.84 0 3.6.75 4.9 2.08a7.18 7.18 0 0 1 2.05 5v10.64Z"/></g><path fill="#FEFEFE" d="M186.57 106.5h-7.14c-.52 0-1 .21-1.37.59a2.04 2.04 0 0 0 0 2.82c.37.38.85.59 1.37.59h7.14c.52 0 1-.21 1.37-.59a2.04 2.04 0 0 0 0-2.82 1.89 1.89 0 0 0-1.37-.59Zm0 2.86h-7.14a.82.82 0 0 1-.76-.53.88.88 0 0 1 .44-1.12.8.8 0 0 1 .31-.07h7.16a.8.8 0 0 1 .58.25.89.89 0 0 1 .18.94.82.82 0 0 1-.76.53ZM200.4 106.5h-7.8a2.19 2.19 0 0 0-1.48.58 2 2 0 0 0-.62 1.42 1.91 1.91 0 0 0 .62 1.42 2.11 2.11 0 0 0 1.48.58h7.8c.56 0 1.1-.21 1.48-.59.4-.37.62-.88.62-1.41 0-.53-.22-1.04-.62-1.41-.39-.38-.92-.59-1.48-.59Zm0 2.86h-7.8a.92.92 0 0 1-.63-.25.83.83 0 0 1 0-1.21.91.91 0 0 1 .63-.26h7.8c.24 0 .47.1.63.25a.83.83 0 0 1 0 1.22.92.92 0 0 1-.63.25ZM186.57 101.5h-7.15c-.5 0-1 .16-1.36.44-.36.28-.56.66-.56 1.06s.2.78.56 1.06c.37.28.85.44 1.36.44h7.15c.26 0 .5-.04.74-.11.23-.08.45-.19.63-.33.17-.14.32-.3.41-.48a1.22 1.22 0 0 0 0-1.15c-.1-.19-.24-.35-.41-.5a2 2 0 0 0-.63-.32 2.42 2.42 0 0 0-.74-.11Zm0 2.14h-7.15a.96.96 0 0 1-.58-.19.58.58 0 0 1-.24-.45c0-.17.09-.33.24-.45a.96.96 0 0 1 .58-.2h7.15c.22 0 .43.08.59.2.15.12.24.28.24.45 0 .17-.09.33-.24.45a.96.96 0 0 1-.59.2ZM200.4 101.5h-7.8c-.27 0-.55.04-.8.11-.26.08-.49.19-.68.33-.2.14-.35.3-.46.49-.1.18-.16.37-.16.57 0 .2.05.4.16.58.1.18.26.34.46.48.2.14.42.25.68.33.25.07.53.11.8.11h7.8c.56 0 1.1-.16 1.48-.44.4-.28.62-.66.62-1.06s-.22-.78-.62-1.06c-.39-.28-.92-.44-1.48-.44Zm0 2.14h-7.8c-.24 0-.47-.06-.63-.19-.17-.12-.27-.28-.27-.45 0-.17.1-.33.27-.45.16-.13.4-.2.63-.2h7.8c.24 0 .47.08.64.2.17.12.26.28.26.45 0 .17-.1.33-.26.45-.17.13-.4.2-.64.2ZM186.57 95.5h-7.14c-.52 0-1 .21-1.37.59a2.04 2.04 0 0 0 0 2.82c.37.38.85.59 1.37.59h7.14c.52 0 1-.21 1.37-.59a2.04 2.04 0 0 0 0-2.82 1.89 1.89 0 0 0-1.37-.59Zm0 2.86h-7.14a.8.8 0 0 1-.59-.25.87.87 0 0 1 0-1.22.8.8 0 0 1 .59-.25h7.14a.8.8 0 0 1 .59.25.87.87 0 0 1 0 1.22.8.8 0 0 1-.59.25ZM200.4 95.5h-7.8a2.19 2.19 0 0 0-1.48.58 2 2 0 0 0-.62 1.42 1.91 1.91 0 0 0 .62 1.42 2.11 2.11 0 0 0 1.48.58h7.8c.56 0 1.1-.21 1.49-.59.39-.37.61-.88.61-1.41 0-.53-.22-1.04-.61-1.41-.4-.38-.93-.59-1.49-.59Zm0 2.86h-7.8a.92.92 0 0 1-.63-.25.84.84 0 0 1-.27-.61c0-.23.1-.45.27-.6.17-.17.4-.26.63-.26h7.8c.24 0 .47.1.64.25a.84.84 0 0 1 0 1.21.92.92 0 0 1-.64.26Z"/><g filter="url(#b)"><path fill="#007CBA" d="M135.5 129.5c12.15 0 22-9.63 22-21.5s-9.85-21.5-22-21.5-22 9.63-22 21.5 9.85 21.5 22 21.5Z"/><path fill="#000" d="M136 126.5a18.5 18.5 0 1 0 0-37 18.5 18.5 0 0 0 0 37Z" opacity=".1"/><path fill="#fff" d="M135.18 118.5v-2.7a6.5 6.5 0 0 1-3.68-1.19l.58-1.8c1 .74 2.21 1.15 3.46 1.16 1.71 0 2.87-1.1 2.87-2.63 0-1.47-.94-2.38-2.72-3.18-2.46-1.08-3.97-2.3-3.97-4.64a4.24 4.24 0 0 1 3.63-4.31V96.5h1.5v2.6c1.1.01 2.19.34 3.12.94l-.6 1.77c-.9-.6-1.95-.92-3.03-.92-1.86 0-2.55 1.24-2.55 2.3 0 1.4.89 2.1 2.98 3.06 2.48 1.13 3.73 2.52 3.73 4.9a4.5 4.5 0 0 1-3.8 4.56v2.79h-1.52Z"/><path fill="#007CBA" d="M158.5 150.77a153.47 153.47 0 0 1-46 0v-5.27a170.58 170.58 0 0 0 46 0v5.27ZM158.5 143.01a178.77 178.77 0 0 1-46 0v-4.51a198.68 198.68 0 0 0 46 0v4.51ZM158.5 135.52a134.53 134.53 0 0 1-46 0v-6.02a149.44 149.44 0 0 0 46 0v6.02Z"/></g><defs><filter id="a" width="165" height="100" x="57.5" y="37.5" color-interpolation-filters="sRGB" filterUnits="userSpaceOnUse"><feFlood flood-opacity="0" result="BackgroundImageFix"/><feColorMatrix in="SourceAlpha" values="0 0 0 0 0 0 0 0 0 0 0 0 0 0 0 0 0 0 127 0"/><feOffset dy="2"/><feGaussianBlur stdDeviation="3"/><feColorMatrix values="0 0 0 0 0 0 0 0 0 0 0 0 0 0 0 0 0 0 0.05 0"/><feBlend in2="BackgroundImageFix" result="effect1_dropShadow"/><feBlend in="SourceGraphic" in2="effect1_dropShadow" result="shape"/></filter><filter id="b" width="58" height="78" x="106.5" y="82.5" color-interpolation-filters="sRGB" filterUnits="userSpaceOnUse"><feFlood flood-opacity="0" result="BackgroundImageFix"/><feColorMatrix in="SourceAlpha" values="0 0 0 0 0 0 0 0 0 0 0 0 0 0 0 0 0 0 127 0"/><feOffset dy="2"/><feGaussianBlur stdDeviation="3"/><feColorMatrix values="0 0 0 0 0 0 0 0 0 0 0 0 0 0 0 0 0 0 0.05 0"/><feBlend in2="BackgroundImageFix" result="effect1_dropShadow"/><feBlend in="SourceGraphic" in2="effect1_dropShadow" result="shape"/></filter></defs></svg>
